X: 19883
T: Jig Al Dente
R: jig
M: 6/8
K: Gmajor
"G"d2 d B2 B|"G"d2 d B2 B|"C"gfe "G"dcB|"D"A3 z2 A/B/|
"D7"c2 c D2 D|"D7"c2 c D2 D|"C"edc "D7"BAF|"G"G3 z2 B/c/|"G"d2 g d2 g|
"C"gfe "D7"fga|"D"a3 z2 A/B/|"C"c2 c "G"d2 d|"Em"e2 e "D"f2 f|
"C"gfe "G"dcB|"Am"cBA "G"BAG|"D"AGF "G"G2z:|

